public/images/transaction_icon.svg

<svg width="23" height="23" viewBox="0 0 23 23" fill="none" xmlns="http://www.w3.org/2000/svg">
<path d="M12.132 16.4099C12.3149 16.2296 12.4187 15.9839 12.4205 15.727C12.4223 15.4701 12.322 15.223 12.1416 15.04C11.9612 14.8571 11.7156 14.7533 11.4587 14.7515C11.2017 14.7497 10.9546 14.85 10.7717 15.0304L7.14434 18.6192L7.14434 1.36023C7.14434 1.10437 7.0427 0.85899 6.86178 0.678069C6.68086 0.497148 6.43547 0.395508 6.17961 0.395508C5.92375 0.395508 5.67837 0.497148 5.49745 0.678069C5.31653 0.85899 5.21489 1.10437 5.21489 1.36023L5.21489 18.6192L1.6454 15.0304C1.55545 14.9411 1.44879 14.8703 1.33151 14.8223C1.21423 14.7742 1.08862 14.7496 0.961862 14.7501C0.835102 14.7505 0.709671 14.7759 0.592732 14.8249C0.475792 14.8738 0.369634 14.9453 0.280318 15.0352C0.191001 15.1252 0.120278 15.2318 0.072182 15.3491C0.0240872 15.4664 -0.000436493 15.592 1.07743e-05 15.7188C0.000458996 15.8455 0.0258687 15.9709 0.0747912 16.0879C0.123714 16.2048 0.195191 16.311 0.28514 16.4003L6.17961 22.2948L12.132 16.4099Z" fill="#DEDEDE"/>
<path d="M10.569 6.57942C10.5679 6.77104 10.6238 6.95865 10.7298 7.11833C10.8357 7.27801 10.9868 7.40253 11.1637 7.47601C11.3407 7.54949 11.5356 7.5686 11.7234 7.53091C11.9113 7.49322 12.0837 7.40043 12.2187 7.26438L15.8267 3.68525L15.8267 20.9345C15.8267 21.1904 15.9284 21.4358 16.1093 21.6167C16.2902 21.7976 16.5356 21.8993 16.7915 21.8993C17.0473 21.8993 17.2927 21.7976 17.4736 21.6167C17.6545 21.4358 17.7562 21.1904 17.7562 20.9345L17.7562 3.68525L21.3546 7.26438C21.4446 7.3537 21.5512 7.42442 21.6685 7.47252C21.7858 7.52061 21.9114 7.54513 22.0381 7.54469C22.1649 7.54424 22.2903 7.51883 22.4073 7.4699C22.5242 7.42098 22.6304 7.34951 22.7197 7.25956C22.809 7.16961 22.8797 7.06295 22.9278 6.94566C22.9759 6.82838 23.0004 6.70277 23 6.57601C22.9991 6.32001 22.8965 6.07485 22.7149 5.89447L16.7915 -2.71384e-07L10.868 5.89447C10.7751 5.98301 10.7008 6.08919 10.6495 6.20681C10.5981 6.32442 10.5708 6.4511 10.569 6.57942Z" fill="#DEDEDE"/>
</svg>

<svg width="23" height="23" fill="none" xmlns="http://www.w3.org/2000/svg"><path d="M12.132 16.41a.969.969 0 10-1.36-1.38l-3.628 3.59V1.36a.965.965 0 00-1.93 0v17.26l-3.569-3.59A.964.964 0 000 15.72a.966.966 0 00.285.681l5.895 5.895 5.952-5.885zm-1.563-9.83a.964.964 0 001.65.684l3.608-3.579v17.25a.965.965 0 001.93 0V3.684l3.598 3.58a.966.966 0 001.36-1.37L16.79 0l-5.923 5.894a.964.964 0 00-.299.685z" fill="#DEDEDE"/></svg>
